apps/mobile/assets/icons/phosphor/swatches.svg

<svg
  height="32"
  viewBox="0 0 256 256"
  width="32"
  xmlns="http://www.w3.org/2000/svg"
>
  <path
    d="m88 180a12 12 0 1 1 -12-12 12 12 0 0 1 12 12zm152-23.81v51.81a16 16 0 0 1 -16 16h-148a46.36 46.36 0 0 1 -7.94-.68 44 44 0 0 1 -35.43-50.95l25-143.13a15.94 15.94 0 0 1 18.47-13l54.74 9.76a16 16 0 0 1 12.92 18.52l-12.08 69 67.81-24.52a16 16 0 0 1 20.45 9.52l19.06 52.17a18.35 18.35 0 0 1 1 5.5zm-137 28.68 25-143.13-54.54-9.74-25 143.1a28 28 0 0 0 22.44 32.47 27.29 27.29 0 0 0 20.56-4.57 27.84 27.84 0 0 0 11.54-18.13zm13.78 10.13 107.22-38.89-19.08-52.11-76.42 27.7-9.78 55.92a44.63 44.63 0 0 1 -1.94 7.38zm107.22-21.88-96.26 34.88h96.26z"
  />
</svg>

<svg xmlns="http://www.w3.org/2000/svg" width="32" height="32" fill="#000000" viewBox="0 0 256 256"><path d="M88,180a12,12,0,1,1-12-12A12,12,0,0,1,88,180Zm152-23.81V208a16,16,0,0,1-16,16H76a46.36,46.36,0,0,1-7.94-.68,44,44,0,0,1-35.43-50.95l25-143.13a15.94,15.94,0,0,1,18.47-13L130.84,26a16,16,0,0,1,12.92,18.52l-12.08,69L199.49,89a16,16,0,0,1,20.45,9.52L239,150.69A18.35,18.35,0,0,1,240,156.19ZM103,184.87,128,41.74,73.46,32l-25,143.1A28,28,0,0,0,70.9,207.57,27.29,27.29,0,0,0,91.46,203,27.84,27.84,0,0,0,103,184.87ZM116.78,195,224,156.11,204.92,104,128.5,131.7l-9.78,55.92A44.63,44.63,0,0,1,116.78,195ZM224,173.12,127.74,208H224Z"></path></svg>
